_includes/icons/ios-500px.svg

<svg fill="#666" height="50" viewBox="0 0 50 50" width="50" xmlns="http://www.w3.org/2000/svg"><path d="m15 4c-.265625 0-.519531.105469-.707031.292969s-.292969.441406-.292969.707031l.007813 16.976563c0 .476562.335937.886718.804687.980468.464844.09375.933594-.15625 1.121094-.59375 1.875-4.472656 6.21875-7.363281 11.066406-7.363281 6.617188 0 12 5.382813 12 12 0 6.617188-5.382812 12-12 12-2.574219 0-5.003906-.824219-7-2.265625v-9.734375c0-3.859375 3.140625-7 7-7s7 3.140625 7 7-3.140625 7-7 7c-.867187 0-1.726562-.164062-2.546875-.484375-.515625-.203125-1.097656.050781-1.296875.5625-.203125.515625.050781 1.09375.5625 1.296875 1.058594.414063 2.164063.625 3.28125.625 4.960938 0 9-4.039062 9-9 0-4.960937-4.039062-9-9-9-4.960937 0-9 4.039063-9 9v7.917969c-.847656-.964844-1.554687-2.074219-2.066406-3.308594-.214844-.507812-.800781-.75-1.308594-.535156-.511719.210937-.75.796875-.539062 1.304687 2.183593 5.238282 7.253906 8.621094 12.914062 8.621094 7.71875 0 14-6.28125 14-14s-6.28125-14-14-14c-4.367187 0-8.382812 2.007813-10.996094 5.324219l-.003906-12.324219h20c.550781 0 1-.449219 1-1s-.449219-1-1-1zm12 4c-2.175781 0-4.308594.367188-6.34375 1.085938-.519531.183593-.792969.753906-.609375 1.273437.183594.523438.757813.792969 1.277344.609375 1.816406-.640625 3.726562-.96875 5.675781-.96875 4.679688 0 9.042969 1.859375 12.28125 5.242188.195313.207031.457031.308593.71875.308593.25 0 .5-.089843.691406-.277343.398438-.382813.414063-1.015625.03125-1.414063-3.617187-3.777344-8.492187-5.859375-13.722656-5.859375zm-2 16c-.253906 0-.511719.097656-.707031.292969-.390625.390625-.390625 1.023437 0 1.414062l1.292969 1.292969-1.292969 1.292969c-.390625.390625-.390625 1.023437 0 1.414062.195312.195313.449219.292969.707031.292969.257813 0 .511719-.097656.707031-.292969l1.292969-1.292968 1.292969 1.292968c.195312.195313.449219.292969.707031.292969.257813 0 .511719-.097656.707031-.292969.390625-.390625.390625-1.023437 0-1.414062l-1.292968-1.292969 1.292968-1.292969c.390625-.390625.390625-1.023437 0-1.414062s-1.023437-.390625-1.414062 0l-1.292969 1.292969-1.292969-1.292969c-.195312-.195313-.453125-.292969-.707031-.292969zm-16.023437 2.5625c-.550782.015625-.984375.480469-.96875 1.03125.320312 10.320313 8.660156 18.40625 18.992187 18.40625 5.761719 0 11.144531-2.578125 14.777344-7.066406.347656-.433594.28125-1.0625-.148438-1.410156-.429687-.347657-1.058593-.277344-1.40625.148437-3.25 4.023438-8.070312 6.328125-13.222656 6.328125-9.246094 0-16.707031-7.234375-16.992187-16.46875-.015625-.550781-.476563-1.003906-1.03125-.96875z"/></svg>

<svg xmlns="http://www.w3.org/2000/svg" viewBox="0 0 50 50" width="50" height="50" fill="#666"><path d="M 15 4 C 14.734375 4 14.480469 4.105469 14.292969 4.292969 C 14.105469 4.480469 14 4.734375 14 5 L 14.007813 21.976563 C 14.007813 22.453125 14.34375 22.863281 14.8125 22.957031 C 15.277344 23.050781 15.746094 22.800781 15.933594 22.363281 C 17.808594 17.890625 22.152344 15 27 15 C 33.617188 15 39 20.382813 39 27 C 39 33.617188 33.617188 39 27 39 C 24.425781 39 21.996094 38.175781 20 36.734375 L 20 27 C 20 23.140625 23.140625 20 27 20 C 30.859375 20 34 23.140625 34 27 C 34 30.859375 30.859375 34 27 34 C 26.132813 34 25.273438 33.835938 24.453125 33.515625 C 23.9375 33.3125 23.355469 33.566406 23.15625 34.078125 C 22.953125 34.59375 23.207031 35.171875 23.71875 35.375 C 24.777344 35.789063 25.882813 36 27 36 C 31.960938 36 36 31.960938 36 27 C 36 22.039063 31.960938 18 27 18 C 22.039063 18 18 22.039063 18 27 L 18 34.917969 C 17.152344 33.953125 16.445313 32.84375 15.933594 31.609375 C 15.71875 31.101563 15.132813 30.859375 14.625 31.074219 C 14.113281 31.285156 13.875 31.871094 14.085938 32.378906 C 16.269531 37.617188 21.339844 41 27 41 C 34.71875 41 41 34.71875 41 27 C 41 19.28125 34.71875 13 27 13 C 22.632813 13 18.617188 15.007813 16.003906 18.324219 L 16 6 L 36 6 C 36.550781 6 37 5.550781 37 5 C 37 4.449219 36.550781 4 36 4 Z M 27 8 C 24.824219 8 22.691406 8.367188 20.65625 9.085938 C 20.136719 9.269531 19.863281 9.839844 20.046875 10.359375 C 20.230469 10.882813 20.804688 11.152344 21.324219 10.96875 C 23.140625 10.328125 25.050781 10 27 10 C 31.679688 10 36.042969 11.859375 39.28125 15.242188 C 39.476563 15.449219 39.738281 15.550781 40 15.550781 C 40.25 15.550781 40.5 15.460938 40.691406 15.273438 C 41.089844 14.890625 41.105469 14.257813 40.722656 13.859375 C 37.105469 10.082031 32.230469 8 27 8 Z M 25 24 C 24.746094 24 24.488281 24.097656 24.292969 24.292969 C 23.902344 24.683594 23.902344 25.316406 24.292969 25.707031 L 25.585938 27 L 24.292969 28.292969 C 23.902344 28.683594 23.902344 29.316406 24.292969 29.707031 C 24.488281 29.902344 24.742188 30 25 30 C 25.257813 30 25.511719 29.902344 25.707031 29.707031 L 27 28.414063 L 28.292969 29.707031 C 28.488281 29.902344 28.742188 30 29 30 C 29.257813 30 29.511719 29.902344 29.707031 29.707031 C 30.097656 29.316406 30.097656 28.683594 29.707031 28.292969 L 28.414063 27 L 29.707031 25.707031 C 30.097656 25.316406 30.097656 24.683594 29.707031 24.292969 C 29.316406 23.902344 28.683594 23.902344 28.292969 24.292969 L 27 25.585938 L 25.707031 24.292969 C 25.511719 24.097656 25.253906 24 25 24 Z M 8.976563 26.5625 C 8.425781 26.578125 7.992188 27.042969 8.007813 27.59375 C 8.328125 37.914063 16.667969 46 27 46 C 32.761719 46 38.144531 43.421875 41.777344 38.933594 C 42.125 38.5 42.058594 37.871094 41.628906 37.523438 C 41.199219 37.175781 40.570313 37.246094 40.222656 37.671875 C 36.972656 41.695313 32.152344 44 27 44 C 17.753906 44 10.292969 36.765625 10.007813 27.53125 C 9.992188 26.980469 9.53125 26.527344 8.976563 26.5625 Z"/></svg>
